images/sprite.svg

<svg aria-hidden="true" style="position: absolute; width: 0; height: 0; overflow: hidden;" version="1.1" xmlns="http://www.w3.org/2000/svg" xmlns:xlink="http://www.w3.org/1999/xlink">
<defs>

<symbol id="icon-thanks_for_ordering" width="105" height="112" viewBox="0 0 105 112">
<path d="M42.5636 56.5039C46.3219 56.5039 50.656 59.9493 52.4769 63.4812C54.2246 59.9493 58.5121 56.5039 62.2704 56.5039C72.157 56.5039 77.3933 70.0623 68.3821 78.9203L52.7898 94.2463L36.8746 78.9203C27.5771 70.5483 32.6769 56.5039 42.5636 56.5039Z" stroke="black" stroke-width="2" stroke-miterlimit="22.9256" stroke-linecap="round" stroke-linejoin="round"/>
<path d="M71.8273 37.7982V20.861C71.8273 10.242 63.1323 1.53711 52.5 1.53711C41.871 1.53711 33.1727 10.232 33.1727 20.861V37.7949M9.92076 22.0694H95.0826C97.5326 22.0694 99.4034 24.1033 99.5399 26.5267L103.994 106.542C104.13 108.959 101.96 110.999 99.5399 110.999H5.46345C3.04005 110.999 0.869628 108.989 1.00611 106.542L5.46345 26.5267C5.59993 24.0767 7.47073 22.0694 9.92076 22.0694ZM71.8239 32.2557C73.9744 32.2557 75.722 34 75.722 36.1504C75.722 38.3009 73.9777 40.0452 71.8239 40.0452C69.6735 40.0452 67.9292 38.3009 67.9292 36.1504C67.9292 34 69.6735 32.2557 71.8239 32.2557ZM33.1761 32.2557C35.3265 32.2557 37.0708 34 37.0708 36.1504C37.0708 38.3009 35.3265 40.0452 33.1761 40.0452C31.0223 40.0452 29.278 38.3009 29.278 36.1504C29.2813 34 31.0223 32.2557 33.1761 32.2557Z" stroke="black" stroke-width="2" stroke-miterlimit="22.9256"/>
</symbol>
<symbol id="icon-close" viewBox="0 0 32 32">
<path d="M23.733 10.304l-1.504-1.504-5.963 5.963-5.963-5.963-1.504 1.504 5.963 5.963-5.963 5.963 1.504 1.504 5.963-5.963 5.963 5.963 1.504-1.504-5.963-5.963 5.963-5.963z"></path>

<symbol id="icon-clients-arrow-left" viewBox="0 0 20 32">
<path fill="none" stroke="#c0a78f" style="stroke: var(--color1, #c0a78f)" stroke-linejoin="round" stroke-linecap="butt" stroke-miterlimit="4" stroke-width="3.6923" d="M16 2.462l-13.538 13.538 13.538 13.538"></path>
</symbol>
<symbol id="icon-clients-arrow-right" viewBox="0 0 20 32">
<path fill="none" stroke="#c0a78f" style="stroke: var(--color1, #c0a78f)" stroke-linejoin="round" stroke-linecap="butt" stroke-miterlimit="4" stroke-width="3.6923" d="M3.692 2.462l13.538 13.538-13.538 13.538"></path>
</symbol>
<symbol id="icon-hero-arrow-left" viewBox="0 0 81 32">
<path fill="none" stroke="#fff" style="stroke: var(--color2, #fff)" stroke-linejoin="miter" stroke-linecap="butt" stroke-miterlimit="4" stroke-width="2.9091" d="M21.761 4.593l-18.852 10.884 18.852 10.884v-21.769z"></path>
<path fill="none" stroke="#fff" style="stroke: var(--color2, #fff)" stroke-linejoin="miter" stroke-linecap="butt" stroke-miterlimit="4" stroke-width="2.9091" d="M20.359 16.165h60.243"></path>
</symbol>
<symbol id="icon-hero-arrow-right" viewBox="0 0 81 32">
<path fill="none" stroke="#fff" style="stroke: var(--color2, #fff)" stroke-linejoin="miter" stroke-linecap="butt" stroke-miterlimit="4" stroke-width="2.9091" d="M59.27 4.593l18.852 10.884-18.852 10.884v-21.769z"></path>
<path fill="none" stroke="#fff" style="stroke: var(--color2, #fff)" stroke-linejoin="miter" stroke-linecap="butt" stroke-miterlimit="4" stroke-width="2.9091" d="M60.669 16.165h-60.243"></path>
</symbol>
<symbol id="icon-delete" width="15" height="15" viewBox="0 0 15 15" fill="none" xmlns="http://www.w3.org/2000/svg">>
<path d="M1 14L14 1" stroke="#C5C0C0"/>
<path d="M14 14L1 1" stroke="#C5C0C0"/>
</symbol>
<symbol id="icon-hanger" viewBox="0 0 36 32">
<path fill="none" stroke-linejoin="round" stroke-linecap="round" stroke-miterlimit="4" stroke-width="2.1333" d="M14.933 20.267c-4.298 3.255-12.8 10.667-12.8 10.667h32l-15.059-13.078c1.443-1.4 4.214-4.861 5.365-6.543 2.071-3.027 0.769-9.178-6.024-9.179-7.341-0-7.624 7.128-5.459 9.862"></path>
</symbol>
<symbol id="icon-sign" viewBox="0 0 38 32">
<path fill="none" stroke-linejoin="miter" stroke-linecap="butt" stroke-miterlimit="4" stroke-width="2" d="M2.546 30.5l16.454-28.5 16.454 28.5h-32.909z"></path>
<path d="M18 12.012h2v10h-2v-10z"></path>
<path d="M18 24.012h2v2h-2v-2z"></path>
</symbol>
<symbol id="icon-colorpicker" viewBox="0 0 32 32">
<path fill="#fff" style="fill: var(--color1, #fff)" d="M0 0h32v32h-32v-32z"></path>
<path fill="" style="fill: var(--color2, )" d="M27.826 16c0 6.531-5.295 11.826-11.826 11.826s-11.826-5.295-11.826-11.826c0-6.531 5.295-11.826 11.826-11.826s11.826 5.295 11.826 11.826z"></path>
<path fill="#fff" style="fill: var(--color1, #fff)" d="M23.652 16c0 4.226-3.426 7.652-7.652 7.652s-7.652-3.426-7.652-7.652c0-4.226 3.426-7.652 7.652-7.652s7.652 3.426 7.652 7.652z"></path>
<path fill="none" stroke="" style="stroke: var(--color3, )" stroke-linejoin="miter" stroke-linecap="butt" stroke-miterlimit="4" stroke-width="0.6957" d="M31.652 16c0 8.644-7.008 15.652-15.652 15.652s-15.652-7.008-15.652-15.652c0-8.644 7.008-15.652 15.652-15.652s15.652 7.008 15.652 15.652z"></path>
</symbol>
</defs>
</svg>

<svg aria-hidden="true" style="position:absolute;width:0;height:0;overflow:hidden" xmlns="http://www.w3.org/2000/svg"><defs><symbol id="icon-thanks_for_ordering" viewBox="0 0 105 112"><path d="M42.564 56.504c3.758 0 8.092 3.445 9.913 6.977 1.748-3.532 6.035-6.977 9.793-6.977 9.887 0 15.123 13.558 6.112 22.416L52.79 94.246 36.875 78.92c-9.298-8.372-4.198-22.416 5.689-22.416Z" stroke="#000" stroke-width="2" stroke-miterlimit="22.926" stroke-linecap="round" stroke-linejoin="round"/><path d="M71.827 37.798V20.861c0-10.619-8.695-19.324-19.327-19.324-10.629 0-19.327 8.695-19.327 19.324v16.934M9.92 22.069h85.162c2.45 0 4.32 2.034 4.457 4.458l4.454 80.015c.136 2.417-2.034 4.457-4.454 4.457H5.463c-2.423 0-4.593-2.01-4.457-4.457l4.457-80.015c.137-2.45 2.008-4.458 4.458-4.458Zm61.903 10.187a3.898 3.898 0 0 1 3.898 3.894 3.896 3.896 0 0 1-7.793 0 3.895 3.895 0 0 1 3.895-3.894Zm-38.648 0a3.895 3.895 0 1 1-.001 7.79 3.895 3.895 0 0 1 .001-7.79Z" stroke="#000" stroke-width="2" stroke-miterlimit="22.926"/></symbol><symbol id="icon-close" viewBox="0 0 32 32"><path d="M23.733 10.304 22.229 8.8l-5.963 5.963L10.303 8.8l-1.504 1.504 5.963 5.963-5.963 5.963 1.504 1.504 5.963-5.963 5.963 5.963 1.504-1.504-5.963-5.963 5.963-5.963z"/></symbol><symbol id="icon-clients-arrow-left" viewBox="0 0 20 32"><path fill="none" stroke="#c0a78f" style="stroke:var(--color1, #c0a78f)" stroke-linejoin="round" stroke-width="3.692" d="M16 2.462 2.462 16 16 29.538"/></symbol><symbol id="icon-clients-arrow-right" viewBox="0 0 20 32"><path fill="none" stroke="#c0a78f" style="stroke:var(--color1, #c0a78f)" stroke-linejoin="round" stroke-width="3.692" d="M3.692 2.462 17.23 16 3.692 29.538"/></symbol><symbol id="icon-hero-arrow-left" viewBox="0 0 81 32"><path fill="none" stroke="#fff" style="stroke:var(--color2, #fff)" stroke-width="2.909" d="M21.761 4.593 2.909 15.477l18.852 10.884V4.592zm-1.402 11.572h60.243"/></symbol><symbol id="icon-hero-arrow-right" viewBox="0 0 81 32"><path fill="none" stroke="#fff" style="stroke:var(--color2, #fff)" stroke-width="2.909" d="m59.27 4.593 18.852 10.884L59.27 26.361V4.592zm1.399 11.572H.426"/></symbol><symbol id="icon-delete" viewBox="0 0 15 15" fill="none" xmlns="http://www.w3.org/2000/svg">&gt;<path d="M1 14 14 1m0 13L1 1" stroke="#C5C0C0"/></symbol><symbol id="icon-hanger" viewBox="0 0 36 32"><path fill="none" stroke-linejoin="round" stroke-linecap="round" stroke-width="2.133" d="M14.933 20.267c-4.298 3.255-12.8 10.667-12.8 10.667h32L19.074 17.856c1.443-1.4 4.214-4.861 5.365-6.543 2.071-3.027.769-9.178-6.024-9.179-7.341 0-7.624 7.128-5.459 9.862"/></symbol><symbol id="icon-sign" viewBox="0 0 38 32"><path fill="none" stroke-width="2" d="M2.546 30.5 19 2l16.454 28.5H2.545z"/><path d="M18 12.012h2v10h-2v-10zm0 12h2v2h-2v-2z"/></symbol><symbol id="icon-colorpicker" viewBox="0 0 32 32"><path fill="#fff" style="fill:var(--color1, #fff)" d="M0 0h32v32H0V0z"/><path style="fill:var(--color2, )" d="M27.826 16c0 6.531-5.295 11.826-11.826 11.826S4.174 22.531 4.174 16C4.174 9.469 9.469 4.174 16 4.174S27.826 9.469 27.826 16z"/><path fill="#fff" style="fill:var(--color1, #fff)" d="M23.652 16a7.652 7.652 0 1 1-15.304 0 7.652 7.652 0 0 1 15.304 0z"/><path fill="none" style="stroke:var(--color3, )" stroke-width=".696" d="M31.652 16c0 8.644-7.008 15.652-15.652 15.652S.348 24.644.348 16C.348 7.356 7.356.348 16 .348S31.652 7.356 31.652 16z"/></symbol></defs></svg>
